Simply-Blue-Circles/symbolic/actions/system-run-symbolic.svg

<svg xmlns="http://www.w3.org/2000/svg" width="24" height="24" viewBox="0 0 6.35 6.35"><path fill="gray" d="M3.175.306a2.869 2.869 0 0 0-2.87 2.87 2.869 2.869 0 0 0 2.87 2.868 2.869 2.869 0 0 0 2.87-2.869A2.869 2.869 0 0 0 3.174.306zm-.008.427A2.467 2.467 0 0 1 5.633 3.2a2.467 2.467 0 0 1-2.466 2.467A2.467 2.467 0 0 1 .7 3.2 2.467 2.467 0 0 1 3.167.733zm.008.269a2.75 2.75 0 0 0-.204.01l-.126.65a1.556 1.556 0 0 0-.3.096l-.476-.455c-.12.072-.226.16-.33.252l.281.592a1.57 1.57 0 0 0-.184.253l-.65-.088a2.145 2.145 0 0 0-.126.398l.572.31a1.498 1.498 0 0 0-.009.155c0 .054.004.103.01.155l-.573.31c.03.139.07.272.126.399l.65-.088c.053.09.115.175.184.252l-.281.593c.104.092.21.18.33.251l.475-.456c.095.043.197.075.301.098l.126.65a2.21 2.21 0 0 0 .407 0l.127-.65c.103-.023.206-.055.3-.098l.476.457c.12-.072.225-.16.33-.252l-.282-.593c.07-.077.132-.162.185-.252l.65.088a2.145 2.145 0 0 0 .126-.398l-.573-.31c.006-.053.01-.102.01-.156 0-.054-.004-.103-.01-.155l.573-.31a2.145 2.145 0 0 0-.126-.398l-.65.087a1.57 1.57 0 0 0-.185-.253l.281-.591a2.149 2.149 0 0 0-.329-.252l-.476.455a1.557 1.557 0 0 0-.3-.096l-.127-.65a2.21 2.21 0 0 0-.203-.01zm0 1.242a.931.931 0 0 1 0 1.863.931.931 0 0 1 0-1.863z"/></svg>

<?xml version="1.0" encoding="UTF-8" standalone="no"?>
<svg
   xmlns:dc="http://purl.org/dc/elements/1.1/"
   xmlns:cc="http://creativecommons.org/ns#"
   xmlns:rdf="http://www.w3.org/1999/02/22-rdf-syntax-ns#"
   xmlns:svg="http://www.w3.org/2000/svg"
   xmlns="http://www.w3.org/2000/svg"
   xmlns:sodipodi="http://sodipodi.sourceforge.net/DTD/sodipodi-0.dtd"
   xmlns:inkscape="http://www.inkscape.org/namespaces/inkscape"
   width="24"
   height="24"
   viewBox="0 0 6.35 6.35"
   version="1.1"
   id="svg4"
   sodipodi:docname="system-run-symbolic.svg"
   inkscape:version="0.92.4 (5da689c313, 2019-01-14)">
  <metadata
     id="metadata10">
    <rdf:RDF>
      <cc:Work
         rdf:about="">
        <dc:format>image/svg+xml</dc:format>
        <dc:type
           rdf:resource="http://purl.org/dc/dcmitype/StillImage" />
        <dc:title></dc:title>
      </cc:Work>
    </rdf:RDF>
  </metadata>
  <defs
     id="defs8" />
  <sodipodi:namedview
     pagecolor="#ffffff"
     bordercolor="#666666"
     borderopacity="1"
     objecttolerance="10"
     gridtolerance="10"
     guidetolerance="10"
     inkscape:pageopacity="0"
     inkscape:pageshadow="2"
     inkscape:window-width="1085"
     inkscape:window-height="480"
     id="namedview6"
     showgrid="false"
     inkscape:zoom="9.8333333"
     inkscape:cx="1.0677966"
     inkscape:cy="12"
     inkscape:window-x="0"
     inkscape:window-y="25"
     inkscape:window-maximized="0"
     inkscape:current-layer="svg4" />
  <path
     d="M 3.175,0.306 A 2.869,2.869 0 0 0 0.305,3.176 2.869,2.869 0 0 0 3.175,6.044 2.869,2.869 0 0 0 6.045,3.175 2.869,2.869 0 0 0 3.174,0.306 Z M 3.167,0.733 A 2.467,2.467 0 0 1 5.633,3.2 2.467,2.467 0 0 1 3.167,5.667 2.467,2.467 0 0 1 0.7,3.2 2.467,2.467 0 0 1 3.167,0.733 Z m 0.008,0.269 a 2.75,2.75 0 0 0 -0.204,0.01 l -0.126,0.65 a 1.556,1.556 0 0 0 -0.3,0.096 L 2.069,1.303 C 1.949,1.375 1.843,1.463 1.739,1.555 L 2.02,2.147 A 1.57,1.57 0 0 0 1.836,2.4 L 1.186,2.312 A 2.145,2.145 0 0 0 1.06,2.71 L 1.632,3.02 A 1.498,1.498 0 0 0 1.623,3.175 c 0,0.054 0.004,0.103 0.01,0.155 L 1.06,3.64 C 1.09,3.779 1.13,3.912 1.186,4.039 L 1.836,3.951 C 1.889,4.041 1.951,4.126 2.02,4.203 L 1.739,4.796 c 0.104,0.092 0.21,0.18 0.33,0.251 L 2.544,4.591 c 0.095,0.043 0.197,0.075 0.301,0.098 l 0.126,0.65 a 2.21,2.21 0 0 0 0.407,0 L 3.505,4.689 C 3.608,4.666 3.711,4.634 3.805,4.591 L 4.281,5.048 C 4.401,4.976 4.506,4.888 4.611,4.796 L 4.329,4.203 C 4.399,4.126 4.461,4.041 4.514,3.951 l 0.65,0.088 A 2.145,2.145 0 0 0 5.29,3.641 L 4.717,3.331 C 4.723,3.278 4.727,3.229 4.727,3.175 4.727,3.121 4.723,3.072 4.717,3.02 L 5.29,2.71 A 2.145,2.145 0 0 0 5.164,2.312 L 4.514,2.399 A 1.57,1.57 0 0 0 4.329,2.146 L 4.61,1.555 A 2.149,2.149 0 0 0 4.281,1.303 L 3.805,1.758 A 1.557,1.557 0 0 0 3.505,1.662 L 3.378,1.012 A 2.21,2.21 0 0 0 3.175,1.002 Z m 0,1.242 a 0.9315,0.9315 0 0 1 0,1.863 0.9315,0.9315 0 0 1 0,-1.863 z"
     id="path2"
     inkscape:connector-curvature="0"
     style="fill:#808080" />
</svg>
